X:1
T:St. Andrew (Thorne), 87.87
T:St. Andrew (Thorne), 87.87
T:Edward Henry Thorne, 1875
T:Public Domain Courtesy of the Cyber Hymnal™
C:Edward Henry Thorne, 1875
Z:Public Domain
Z:Courtesy of the Cyber Hymnal™
%%score ( 1 2 ) ( 3 4 )
L:1/8
Q:1/4=110
M:none
K:C
V:1 treble 
V:2 treble 
V:3 bass 
V:4 bass 
V:1
 [CE]3 [CE] D2 [CE]2 | [B,F]2 [CE]2 [DA]2 G2 | [Ec]3 [Ec] [EB]2 [FA]2 | G2 [^FA]2 [DG]4 | %4
 [EG]3 [EG] ^F2 [EG]2 | [^DA]2 [EG]2 [^Fc]2 B2 | [Ge]3 [Ec] [^Fc]3 [FA] | [Gc]2 [FB]2 [Ec]4 |] %8
V:2
 x4 D2 x2 | x6 G2 | x8 | G2 x6 | x4 ^F2 x2 | x6 B2 | x8 | x8 |] %8
V:3
 [C,G,]3 [C,G,] [B,,G,]2 [C,G,]2 | [D,G,]2 [C,G,]2 [F,B,]2 [E,C]2 | [A,C]3 [A,C] [G,C]2 [F,C]2 | %3
 [E,C]2 [D,C]2 [G,B,]4 | [E,B,]3 [E,B,] [^D,B,]2 [E,B,]2 | [^F,B,]2 [E,B,]2 [A,^D]2 [G,E]2 | %6
 C3 C [A,E]3 [A,C] | [G,E]2 [G,D]2 [C,C]4 |] %8
V:4
 x8 | x8 | x8 | x8 | x8 | x8 | C3 C x4 | x8 |] %8

